assets/images/logo/HaxeFlixel.svg

<svg height="8" viewBox="0 0 8 8" width="8" xmlns="http://www.w3.org/2000/svg"><path d="m1 1h6v6h-6z" fill="#0c3"/><path d="m0 0h2l2 1-3 3-1-2z" fill="#fc3"/><path d="m4 1 2-1h2v2l-1 2z" fill="#f36"/><path d="m1 4 3 3-2 1h-2v-2z" fill="#33f"/><path d="m7 4 1 2v2h-2l-2-1z" fill="#0cf"/></svg>

<?xml version="1.0" encoding="utf-8"?>
<!DOCTYPE svg PUBLIC "-//W3C//DTD SVG 1.1//EN" "http://www.w3.org/Graphics/SVG/1.1/DTD/svg11.dtd">
<svg width="8" height="8" viewBox="0 0 8 8" version="1" xmlns="http://www.w3.org/2000/svg">
<path d="M 1 1 H 7 V 7 H 1 z" fill="#00cc33"/>
<path d="M 0 0 H 2 L 4 1 1 4 0 2 z" fill="#ffcc33"/>
<path d="M 4 1 L 6 0 H 8 V 2 L 7 4 z" fill="#ff3366"/>
<path d="M 1 4 L 4 7 2 8 H 0 V 6 z" fill="#3333ff"/>
<path d="M 7 4 L 8 6 V 8 H 6 L 4 7 z" fill="#00ccff"/>
</svg>
